;FLAVOR:Marlin
;TIME:6484
;Filament used: 4.66632m
;Layer height: 0.2
;MINX:67.735
;MINY:74.729
;MINZ:0.2
;MAXX:153.448
;MAXY:145.502
;MAXZ:20
;Generated with Cura_SteamEngine 5.4.0
M140 S50
M105
M190 S50
M104 S200
M105
M109 S200
M82 ;absolute extrusion mode
M201 X500.00 Y500.00 Z100.00 E5000.00 ;Setup machine max acceleration
M203 X500.00 Y500.00 Z10.00 E50.00 ;Setup machine max feedrate
M204 P500.00 R1000.00 T500.00 ;Setup Print/Retract/Travel acceleration
M205 X8.00 Y8.00 Z0.40 E5.00 ;Setup Jerk
M220 S100 ;Reset Feedrate
M221 S100 ;Reset Flowrate

G28 ;Home

G92 E0 ;Reset Extruder
G1 Z2.0 F3000 ;Move Z Axis up
G1 X10.1 Y20 Z0.28 F5000.0 ;Move to start position
G1 X10.1 Y200.0 Z0.28 F1500.0 E15 ;Draw the first line
G1 X10.4 Y200.0 Z0.28 F5000.0 ;Move to side a little
G1 X10.4 Y20 Z0.28 F1500.0 E30 ;Draw the second line
G92 E0 ;Reset Extruder
G1 Z2.0 F3000 ;Move Z Axis up

G92 E0
G92 E0
G1 F2700 E-5
;LAYER_COUNT:100
;LAYER:0
M107
G0 F6000 X73.014 Y83.672 Z0.2
;TYPE:SKIRT
G1 F2700 E0
G1 F1200 X73.988 Y82.962 E0.04009
G1 X75.114 Y82.233 E0.0847
G1 X77.251 Y80.808 E0.17013
G1 X79.307 Y79.351 E0.25395
G1 X81.315 Y77.843 E0.33747
G1 X82.382 Y77.019 E0.38231
G1 X83.165 Y76.47 E0.41411
G1 X84.038 Y75.966 E0.44764
G1 X84.857 Y75.584 E0.4777
G1 X85.838 Y75.228 E0.51241
G1 X86.711 Y74.996 E0.54245
G1 X87.748 Y74.819 E0.57744
G1 X88.872 Y74.737 E0.61493
G1 X89.582 Y74.729 E0.63854
G1 X90.201 Y74.739 E0.65913
G1 X91.166 Y74.797 E0.69129
G1 X91.879 Y74.896 E0.71523
G1 X94.577 Y75.36 E0.80628
G1 X98.081 Y75.843 E0.92393
G1 X99.473 Y76.007 E0.97055
G1 X101.35 Y76.257 E1.03353
G1 X101.812 Y76.328 E1.04907
G1 X103.24 Y76.585 E1.09733
G1 X105.285 Y76.996 E1.16671
G1 X105.736 Y77.097 E1.18208
G1 X106.931 Y77.392 E1.22302
G1 X108.92 Y77.918 E1.29145
G1 X109.797 Y78.169 E1.32179
G1 X110.865 Y78.506 E1.35904
G1 X112.981 Y79.214 E1.43325
G1 X113.389 Y79.36 E1.44766
G1 X114.397 Y79.746 E1.48356
G1 X116.226 Y80.484 E1.54916
G1 X116.632 Y80.659 E1.56387
G1 X117.865 Y81.219 E1.60891
G1 X119.215 Y81.864 E1.65867
G1 X119.897 Y82.202 E1.68399
G1 X120.552 Y82.548 E1.70863
G1 X122.138 Y83.448 E1.76928
G1 X123.019 Y83.972 E1.80337
G1 X123.514 Y84.286 E1.82287
G1 X126.978 Y86.615 E1.9617
G1 X129.138 Y87.98 E2.04669
G1 X131.313 Y89.269 E2.13078
G1 X133.5 Y90.484 E2.21399
G1 X135.721 Y91.638 E2.29723
G1 X138.024 Y92.75 E2.38229
G1 X140.209 Y93.735 E2.46201
G1 X141.49 Y94.417 E2.51028
G1 X143.339 Y95.587 E2.58306
G1 X145.536 Y96.905 E2.66827
G1 X147.409 Y97.97 E2.73993
G1 X148.174 Y98.45 E2.76997
G1 X148.851 Y98.956 E2.79808
G1 X149.143 Y99.191 E2.81055
G1 X149.82 Y99.788 E2.84057
G1 X150.538 Y100.546 E2.87529
G1 X151.142 Y101.312 E2.90774
G1 X151.675 Y102.129 E2.94018
G1 X152.142 Y103.005 E2.9732
G1 X152.352 Y103.447 E2.98948
G1 X152.727 Y104.345 E3.02184
G1 X153.023 Y105.279 E3.05443
G1 X153.277 Y106.449 E3.09425
G1 X153.412 Y107.603 E3.1329
G1 X153.436 Y108.138 E3.15071
G1 X153.448 Y108.854 E3.17453
G1 X153.447 Y110.494 E3.22907
G1 X153.429 Y111.485 E3.26204
G1 X153.365 Y112.456 E3.29441
G1 X153.217 Y113.418 E3.32678
G1 X152.992 Y114.333 E3.35812
G1 X152.599 Y115.454 E3.39763
G1 X152.45 Y115.812 E3.41052
G1 X152.028 Y116.708 E3.44347
G1 X151.534 Y117.556 E3.47611
G1 X150.888 Y118.454 E3.5129
G1 X150.647 Y118.755 E3.52572
G1 X150.051 Y119.434 E3.55577
G1 X149.301 Y120.15 E3.59026
G1 X148.704 Y120.636 E3.61587
G1 X147.699 Y121.392 E3.65769
G1 X145.676 Y122.959 E3.7428
G1 X143.742 Y124.545 E3.82599
G1 X141.812 Y126.221 E3.91101
G1 X139.981 Y127.906 E3.99377
G1 X138.177 Y129.662 E4.07751
G1 X136.42 Y131.473 E4.16143
G1 X134.704 Y133.343 E4.24584
G1 X133.09 Y135.206 E4.32783
G1 X131.469 Y137.187 E4.41296
G1 X130.049 Y139.02 E4.49008
G1 X129.427 Y139.843 E4.52439
G1 X128.62 Y140.79 E4.56578
G1 X127.948 Y141.491 E4.59807
G1 X127.255 Y142.173 E4.63041
G1 X126.527 Y142.82 E4.66281
G1 X125.745 Y143.4 E4.69519
G1 X124.976 Y143.873 E4.72522
G1 X124.228 Y144.255 E4.75315
G1 X123.86 Y144.425 E4.76664
G1 X122.959 Y144.793 E4.79901
G1 X122.097 Y145.062 E4.82904
G1 X121.006 Y145.295 E4.86614
G1 X120.523 Y145.371 E4.88241
G1 X119.555 Y145.48 E4.91481
G1 X118.582 Y145.502 E4.94718
G1 X117.61 Y145.44 E4.97957
G1 X116.717 Y145.305 E5.00961
G1 X115.85 Y145.099 E5.03925
G1 X115.395 Y144.971 E5.05497
G1 X114.498 Y144.675 E5.08639
G1 X113.286 Y144.137 E5.13049
G1 X112.253 Y143.541 E5.17016
G1 X111.224 Y142.797 E5.21239
G1 X110.993 Y142.607 E5.22234
G1 X110.293 Y141.978 E5.25364
G1 X109.804 Y141.498 E5.27643
G1 X109.392 Y141.073 E5.29612
G1 X108.672 Y140.286 E5.33159
G1 X107.953 Y139.467 E5.36784
G1 X106.235 Y137.614 E5.45189
G1 X104.479 Y135.824 E5.53529
G1 X102.643 Y134.055 E5.62009
G1 X100.788 Y132.365 E5.70355
G1 X98.902 Y130.744 E5.78626
G1 X96.943 Y129.153 E5.8702
G1 X94.939 Y127.619 E5.95414
G1 X92.902 Y126.148 E6.03771
G1 X90.81 Y124.726 E6.12184
G1 X88.665 Y123.354 E6.20653
G1 X86.49 Y122.038 E6.29108
G1 X85.739 Y121.537 E6.32111
G1 X84.789 Y120.759 E6.36195
G1 X84.206 Y120.221 E6.38834
G1 X83.439 Y119.475 E6.42392
G1 X82.479 Y118.512 E6.46915
G1 X81.989 Y118.006 E6.49258
G1 X81.365 Y117.299 E6.52394
G1 X80.661 Y116.326 E6.56389
G1 X80.33 Y115.803 E6.58447
G1 X79.734 Y114.802 E6.62322
G1 X79.332 Y114.103 E6.65004
G1 X78.036 Y112.002 E6.73214
G1 X76.647 Y109.886 E6.81633
G1 X75.204 Y107.82 E6.90015
G1 X73.703 Y105.79 E6.98412
G1 X72.15 Y103.812 E7.06776
G1 X70.52 Y101.839 E7.15288
G1 X69.961 Y101.09 E7.18397
G1 X69.555 Y100.448 E7.20923
G1 X69.338 Y100.077 E7.22353
G1 X68.887 Y99.215 E7.25588
G1 X68.516 Y98.325 E7.28795
G1 X68.273 Y97.591 E7.31367
G1 X68.025 Y96.657 E7.34581
G1 X67.828 Y95.437 E7.38691
G1 X67.791 Y95.066 E7.39931
G1 X67.735 Y94.093 E7.43173
G1 X67.767 Y93.11 E7.46444
G1 X67.929 Y91.899 E7.50508
G1 X67.995 Y91.561 E7.51653
G1 X68.221 Y90.62 E7.54872
G1 X68.477 Y89.836 E7.57615
G1 X68.602 Y89.499 E7.58811
G1 X68.953 Y88.667 E7.61814
G1 X69.44 Y87.749 E7.6527
G1 X69.838 Y87.126 E7.67729
G1 X70.03 Y86.848 E7.68853
G1 X70.614 Y86.077 E7.7207
G1 X71.136 Y85.491 E7.7468
G1 X71.753 Y84.848 E7.77644
G1 X72.31 Y84.297 E7.8025
G1 X73.014 Y83.672 E7.83381
G0 F6000 X73.28 Y83.971
G1 F1200 X74.205 Y83.298 E7.87186
G1 X75.336 Y82.566 E7.91667
G1 X77.473 Y81.141 E8.0021
G1 X79.547 Y79.671 E8.08665
G1 X81.56 Y78.16 E8.17036
G1 X82.612 Y77.347 E8.21458
G1 X83.395 Y76.798 E8.24639
G1 X84.207 Y76.329 E8.27758
G1 X85.026 Y75.947 E8.30764
G1 X85.941 Y75.615 E8.34001
G1 X86.814 Y75.383 E8.37005
G1 X87.777 Y75.218 E8.40255
G1 X88.877 Y75.137 E8.43924
G1 X89.576 Y75.129 E8.46249
G1 X90.177 Y75.138 E8.48248
G1 X91.111 Y75.193 E8.5136
G1 X91.811 Y75.29 E8.5371
G1 X94.515 Y75.755 E8.62836
G1 X98.029 Y76.239 E8.74634
G1 X99.42 Y76.403 E8.79292
G1 X101.289 Y76.652 E8.85563
G1 X101.741 Y76.722 E8.87085
G1 X103.161 Y76.977 E8.91883
G1 X105.198 Y77.386 E8.98794
G1 X105.64 Y77.485 E9.003
G1 X106.829 Y77.779 E9.04374
G1 X108.81 Y78.303 E9.11189
G1 X109.677 Y78.551 E9.14189
G1 X110.738 Y78.885 E9.17888
G1 X112.847 Y79.591 E9.25285
G1 X113.246 Y79.733 E9.26694
G1 X114.247 Y80.117 E9.3026
G1 X116.068 Y80.851 E9.3679
G1 X116.467 Y81.023 E9.38235
G1 X117.693 Y81.58 E9.42714
G1 X119.037 Y82.222 E9.47668
G1 X119.71 Y82.556 E9.50167
G1 X120.355 Y82.896 E9.52592
G1 X121.934 Y83.792 E9.5863
G1 X122.805 Y84.31 E9.62001
G1 X123.291 Y84.618 E9.63915
G1 X126.764 Y86.953 E9.77834
G1 X128.926 Y88.319 E9.8634
G1 X131.119 Y89.619 E9.94819
G1 X133.306 Y90.834 E10.0314
G1 X135.547 Y91.998 E10.11539
G1 X137.86 Y93.115 E10.20082
G1 X140.045 Y94.1 E10.28054
G1 X141.276 Y94.755 E10.32692
G1 X143.133 Y95.93 E10.40001
G1 X145.338 Y97.253 E10.48553
G1 X147.196 Y98.309 E10.55662
G1 X147.961 Y98.789 E10.58665
G1 X148.6 Y99.267 E10.6132
G1 X148.878 Y99.491 E10.62507
G1 X149.555 Y100.088 E10.65509
G1 X150.224 Y100.794 E10.68744
G1 X150.807 Y101.531 E10.7187
G1 X151.322 Y102.317 E10.74995
G1 X151.781 Y103.177 E10.78237
G1 X151.983 Y103.602 E10.79802
G1 X152.346 Y104.467 E10.82922
G1 X152.632 Y105.364 E10.86054
G1 X152.886 Y106.534 E10.90036
G1 X153.012 Y107.621 E10.93675
G1 X153.036 Y108.145 E10.9542
G1 X153.048 Y108.854 E10.97779
G1 X153.047 Y110.487 E11.0321
G1 X153.03 Y111.459 E11.06443
G1 X152.97 Y112.395 E11.09563
G1 X152.828 Y113.323 E11.12685
G1 X152.614 Y114.201 E11.15691
G1 X152.229 Y115.301 E11.19567
G1 X152.088 Y115.642 E11.20795
G1 X151.682 Y116.507 E11.23973
G1 X151.209 Y117.322 E11.27107
G1 X150.563 Y118.22 E11.30786
G1 X150.346 Y118.491 E11.31941
G1 X149.75 Y119.17 E11.34946
G1 X149.048 Y119.84 E11.38174
G1 X148.464 Y120.316 E11.40679
G1 X147.459 Y121.072 E11.44862
G1 X145.431 Y122.643 E11.53394
G1 X143.488 Y124.236 E11.61751
G1 X141.55 Y125.919 E11.70288
G1 X139.702 Y127.619 E11.7864
G1 X137.898 Y129.375 E11.87013
G1 X136.133 Y131.194 E11.95443
G1 X134.409 Y133.073 E12.03925
G1 X132.78 Y134.953 E12.12199
G1 X131.159 Y136.934 E12.20712
G1 X129.733 Y138.775 E12.28457
G1 X129.122 Y139.584 E12.31829
G1 X128.331 Y140.513 E12.35887
G1 X127.667 Y141.206 E12.3908
G1 X126.989 Y141.874 E12.42245
G1 X126.288 Y142.499 E12.45369
G1 X125.535 Y143.059 E12.4849
G1 X124.766 Y143.532 E12.51493
G1 X124.06 Y143.892 E12.54129
G1 X123.708 Y144.055 E12.55419
G1 X122.84 Y144.411 E12.58539
G1 X121.978 Y144.68 E12.61543
G1 X120.943 Y144.9 E12.65062
G1 X120.478 Y144.974 E12.66628
G1 X119.545 Y145.08 E12.69751
G1 X118.607 Y145.103 E12.72872
G1 X117.67 Y145.044 E12.75995
G1 X116.777 Y144.909 E12.78998
G1 X115.958 Y144.714 E12.81799
G1 X115.52 Y144.591 E12.83312
G1 X114.623 Y144.295 E12.86453
G1 X113.449 Y143.772 E12.90728
G1 X112.487 Y143.217 E12.94422
G1 X111.478 Y142.488 E12.98562
G1 X111.26 Y142.309 E12.995
G1 X110.573 Y141.693 E13.02569
G1 X110.091 Y141.22 E13.04816
G1 X109.687 Y140.803 E13.06747
G1 X108.973 Y140.022 E13.10266
G1 X108.254 Y139.203 E13.13891
G1 X106.521 Y137.334 E13.22368
G1 X104.765 Y135.544 E13.30708
G1 X102.921 Y133.767 E13.39226
G1 X101.057 Y132.069 E13.47612
G1 X99.163 Y130.441 E13.55919
G1 X97.186 Y128.835 E13.64391
G1 X95.182 Y127.301 E13.72785
G1 X93.127 Y125.817 E13.81216
G1 X91.035 Y124.395 E13.89629
G1 X88.88 Y123.017 E13.98136
G1 X86.712 Y121.705 E14.06565
G1 X85.961 Y121.204 E14.09567
G1 X85.06 Y120.465 E14.13443
G1 X84.485 Y119.934 E14.16046
G1 X83.722 Y119.192 E14.19586
G1 X82.766 Y118.234 E14.24088
G1 X82.289 Y117.741 E14.26369
G1 X81.665 Y117.034 E14.29506
G1 X80.999 Y116.112 E14.33289
G1 X80.674 Y115.598 E14.35311
G1 X80.081 Y114.603 E14.39164
G1 X79.679 Y113.904 E14.41846
G1 X78.37 Y111.782 E14.50138
G1 X76.981 Y109.666 E14.58557
G1 X75.526 Y107.582 E14.67011
G1 X74.025 Y105.552 E14.75408
G1 X72.465 Y103.565 E14.8381
G1 X70.841 Y101.6 E14.92289
G1 X70.282 Y100.851 E14.95397
G1 X69.9 Y100.246 E14.97777
G1 X69.692 Y99.891 E14.99146
G1 X69.256 Y99.061 E15.02264
G1 X68.896 Y98.199 E15.05371
G1 X68.66 Y97.488 E15.07863
G1 X68.412 Y96.554 E15.11077
G1 X68.226 Y95.396 E15.14978
G1 X68.19 Y95.043 E15.16158
G1 X68.135 Y94.105 E15.19283
G1 X68.164 Y93.163 E15.22418
G1 X68.322 Y91.975 E15.26404
G1 X68.384 Y91.654 E15.27491
G1 X68.601 Y90.744 E15.30603
G1 X68.852 Y89.975 E15.33293
G1 X68.971 Y89.654 E15.34432
G1 X69.322 Y88.822 E15.37435
G1 X69.777 Y87.964 E15.40665
G1 X70.167 Y87.353 E15.43076
G1 X70.349 Y87.089 E15.44143
G1 X70.913 Y86.343 E15.47253
G1 X71.424 Y85.768 E15.49812
G1 X72.035 Y85.132 E15.52745
G1 X72.576 Y84.596 E15.55278
G1 X73.28 Y83.971 E15.58409
G0 F6000 X73.516 Y84.294
G1 F1200 X74.422 Y83.634 E15.62137
G1 X75.553 Y82.902 E15.66618
G1 X77.695 Y81.474 E15.75181
G1 X79.787 Y79.991 E15.83709
G1 X81.805 Y78.477 E15.921
G1 X82.857 Y77.664 E15.96522
G1 X83.595 Y77.144 E15.99525
G1 X84.376 Y76.692 E16.02526
G1 X85.195 Y76.31 E16.05532
G1 X86.044 Y76.002 E16.08536
G1 X86.917 Y75.77 E16.1154
G1 X87.807 Y75.617 E16.14544
G1 X88.882 Y75.537 E16.18129
G1 X89.571 Y75.529 E16.20421
G1 X90.154 Y75.537 E16.2236
G1 X91.056 Y75.589 E16.25365
G1 X91.743 Y75.684 E16.27672
G1 X94.453 Y76.15 E16.36818
G1 X97.977 Y76.635 E16.48649
G1 X99.367 Y76.8 E16.53305
G1 X101.227 Y77.047 E16.59546
G1 X101.67 Y77.116 E16.61037
G1 X103.082 Y77.369 E16.65808
G1 X105.111 Y77.776 E16.72691
G1 X105.544 Y77.873 E16.74167
G1 X106.727 Y78.166 E16.7822
G1 X108.7 Y78.688 E16.85008
G1 X109.557 Y78.933 E16.87973
G1 X110.611 Y79.264 E16.91647
G1 X112.713 Y79.968 E16.9902
G1 X113.103 Y80.107 E17.00397
G1 X114.097 Y80.488 E17.03938
G1 X115.91 Y81.219 E17.1044
G1 X116.302 Y81.387 E17.11858
G1 X117.521 Y81.941 E17.16312
G1 X118.859 Y82.58 E17.21243
G1 X119.524 Y82.91 E17.23712
G1 X120.158 Y83.244 E17.26096
G1 X121.73 Y84.136 E17.32107
G1 X122.591 Y84.648 E17.35439
G1 X123.068 Y84.95 E17.37317
G1 X126.55 Y87.291 E17.51272
G1 X128.714 Y88.658 E17.59785
G1 X130.925 Y89.969 E17.68335
G1 X133.112 Y91.184 E17.76656
G1 X135.373 Y92.358 E17.85129
G1 X137.696 Y93.48 E17.9371
G1 X139.881 Y94.465 E18.01681
G1 X141.065 Y95.095 E18.06142
G1 X141.636 Y95.449 E18.08377
G1 X142.927 Y96.273 E18.13471
G1 X145.14 Y97.601 E18.22055
G1 X146.983 Y98.648 E18.29105
G1 X147.748 Y99.128 E18.32108
G1 X148.349 Y99.578 E18.34606
G1 X148.613 Y99.791 E18.35734
G1 X149.29 Y100.388 E18.38736
G1 X149.911 Y101.043 E18.41738
G1 X150.473 Y101.751 E18.44745
G1 X150.969 Y102.506 E18.47749
G1 X151.42 Y103.349 E18.50929
G1 X151.614 Y103.757 E18.52432
G1 X151.965 Y104.589 E18.55435
G1 X152.241 Y105.449 E18.58439
G1 X152.495 Y106.619 E18.62421
G1 X152.612 Y107.64 E18.65839
G1 X152.636 Y108.152 E18.67544
G1 X152.648 Y108.854 E18.69879
G1 X152.647 Y110.48 E18.75287
G1 X152.631 Y111.434 E18.78461
G1 X152.575 Y112.335 E18.81463
G1 X152.439 Y113.228 E18.84468
G1 X152.225 Y114.106 E18.87473
G1 X151.859 Y115.148 E18.91147
G1 X151.718 Y115.489 E18.92374
G1 X151.336 Y116.307 E18.95377
G1 X150.884 Y117.089 E18.98381
G1 X150.251 Y117.97 E19.01989
G1 X150.045 Y118.227 E19.03085
G1 X149.449 Y118.906 E19.06089
G1 X148.796 Y119.53 E19.09094
G1 X148.223 Y119.996 E19.1155
G1 X147.218 Y120.753 E19.15735
G1 X145.186 Y122.327 E19.24284
G1 X143.234 Y123.927 E19.32678
G1 X141.288 Y125.617 E19.41251
G1 X139.423 Y127.332 E19.49678
G1 X137.619 Y129.088 E19.58051
G1 X135.846 Y130.915 E19.66519
G1 X134.114 Y132.803 E19.7504
G1 X132.47 Y134.7 E19.8339
G1 X130.849 Y136.681 E19.91903
G1 X129.417 Y138.53 E19.99682
G1 X128.817 Y139.325 E20.02994
G1 X128.042 Y140.236 E20.06972
G1 X127.386 Y140.921 E20.10127
G1 X126.722 Y141.576 E20.13229
G1 X126.049 Y142.178 E20.16232
G1 X125.325 Y142.718 E20.19236
G1 X124.556 Y143.191 E20.22239
G1 X123.892 Y143.529 E20.24717
G1 X123.556 Y143.685 E20.25949
G1 X122.721 Y144.029 E20.28953
G1 X121.859 Y144.298 E20.31957
G1 X120.88 Y144.505 E20.35285
G1 X120.432 Y144.577 E20.36794
G1 X119.534 Y144.68 E20.398
G1 X118.632 Y144.704 E20.42801
G1 X117.73 Y144.648 E20.45807
G1 X116.837 Y144.513 E20.48811
G1 X116.066 Y144.329 E20.51447
G1 X115.644 Y144.211 E20.52905
G1 X114.786 Y143.93 E20.55908
G1 X113.612 Y143.407 E20.60182
G1 X112.721 Y142.893 E20.63604
G1 X111.731 Y142.178 E20.67665
G1 X111.527 Y142.011 E20.68542
G1 X110.853 Y141.407 E20.71552
G1 X110.378 Y140.942 E20.73763
G1 X109.982 Y140.533 E20.75657
G1 X109.274 Y139.758 E20.79148
G1 X108.555 Y138.939 E20.82773
G1 X106.807 Y137.054 E20.91323
G1 X105.051 Y135.264 E20.99663
G1 X103.199 Y133.479 E21.08218
G1 X101.326 Y131.773 E21.16645
G1 X99.424 Y130.138 E21.24987
G1 X97.429 Y128.517 E21.33537
G1 X95.425 Y126.983 E21.4193
G1 X93.352 Y125.486 E21.50435
G1 X91.26 Y124.064 E21.58848
G1 X89.095 Y122.68 E21.67395
G1 X86.934 Y121.372 E21.75796
G1 X86.183 Y120.871 E21.78799
G1 X85.331 Y120.171 E21.82467
G1 X84.764 Y119.647 E21.85034
G1 X84.005 Y118.909 E21.88555
G1 X83.053 Y117.956 E21.93036
G1 X82.588 Y117.476 E21.95259
G1 X81.989 Y116.8 E21.98263
G1 X81.337 Y115.899 E22.01962
G1 X81.018 Y115.393 E22.03951
G1 X80.428 Y114.403 E22.07784
G1 X80.025 Y113.704 E22.10468
G1 X78.71 Y111.572 E22.18799
G1 X77.309 Y109.437 E22.27293
G1 X75.848 Y107.344 E22.35782
G1 X74.347 Y105.314 E22.44179
G1 X72.78 Y103.318 E22.5262
G1 X71.161 Y101.36 E22.6107
G1 X70.62 Y100.637 E22.64073
G1 X70.245 Y100.044 E22.66407
G1 X70.046 Y99.704 E22.67717
G1 X69.625 Y98.906 E22.70718
G1 X69.276 Y98.073 E22.73722
G1 X69.04 Y97.362 E22.76214
G1 X68.807 Y96.49 E22.79216
G1 X68.624 Y95.355 E22.83039
G1 X68.589 Y95.019 E22.84163
