;FLAVOR:Marlin
;TIME:5632
;Filament used: 2.76657m
;Layer height: 0.16
;MINX:85.16
;MINY:89.911
;MINZ:0.2
;MAXX:139.744
;MAXY:130.128
;MAXZ:44.16
;TARGET_MACHINE.NAME:Creality Ender-5
;Generated with Cura_SteamEngine 5.5.0
M140 S60
M105
M190 S60
M104 S205
M105
M109 S205
M82 ;absolute extrusion mode
M201 X500.00 Y500.00 Z100.00 E5000.00 ;Setup machine max acceleration
M203 X500.00 Y500.00 Z10.00 E50.00 ;Setup machine max feedrate
M204 P500.00 R1000.00 T500.00 ;Setup Print/Retract/Travel acceleration
M205 X8.00 Y8.00 Z0.40 E5.00 ;Setup Jerk
M220 S100 ;Reset Feedrate
M221 S100 ;Reset Flowrate

G28 ;Home

G92 E0 ;Reset Extruder
G1 Z2.0 F3000 ;Move Z Axis up
G1 X10.1 Y20 Z0.28 F5000.0 ;Move to start position
G1 X10.1 Y200.0 Z0.28 F1500.0 E15 ;Draw the first line
G1 X10.4 Y200.0 Z0.28 F5000.0 ;Move to side a little
G1 X10.4 Y20 Z0.28 F1500.0 E30 ;Draw the second line
G92 E0 ;Reset Extruder
G1 Z2.0 F3000 ;Move Z Axis up

G92 E0
G92 E0
G1 F2700 E-5
;LAYER_COUNT:250
;LAYER:0
M107
G0 F6000 X91.848 Y94.186 Z0.2
;TYPE:SKIRT
G1 F2700 E0
G1 F1200 X92.972 Y93.291 E0.04779
G1 X93.376 Y93.012 E0.06412
G1 X94.14 Y92.532 E0.09413
G1 X95.071 Y92.056 E0.12891
G1 X95.954 Y91.701 E0.16056
G1 X96.236 Y91.602 E0.1705
G1 X97.184 Y91.32 E0.2034
G1 X98.519 Y91.07 E0.24857
G1 X99.377 Y90.975 E0.27728
G1 X100.08 Y90.921 E0.30073
G1 X100.64 Y90.891 E0.31938
G1 X101.366 Y90.883 E0.34353
G1 X102.129 Y90.899 E0.36892
G1 X104.586 Y90.983 E0.45068
G1 X107.11 Y90.996 E0.53463
G1 X109.598 Y90.94 E0.61741
G1 X112.13 Y90.81 E0.70173
G1 X114.628 Y90.612 E0.78508
G1 X117.167 Y90.339 E0.87001
G1 X119.27 Y90.058 E0.94058
G1 X120.033 Y89.986 E0.96607
G1 X120.906 Y89.936 E0.99515
G1 X121.683 Y89.911 E1.02101
G1 X122.467 Y89.913 E1.04708
G1 X122.957 Y89.934 E1.0634
G1 X123.97 Y90.004 E1.09717
G1 X124.906 Y90.115 E1.12852
G1 X126.161 Y90.393 E1.17127
G1 X126.574 Y90.511 E1.18556
G1 X127.532 Y90.835 E1.21919
G1 X128.427 Y91.229 E1.25172
G1 X129.358 Y91.746 E1.28714
G1 X129.622 Y91.911 E1.29749
G1 X130.424 Y92.464 E1.32989
G1 X131.174 Y93.085 E1.36228
G1 X131.864 Y93.766 E1.39452
G1 X132.134 Y94.059 E1.40778
G1 X132.746 Y94.784 E1.43933
G1 X133.072 Y95.228 E1.45765
G1 X133.441 Y95.758 E1.47913
G1 X134.958 Y97.862 E1.56541
G1 X136.681 Y100.113 E1.65969
G1 X137.226 Y100.884 E1.69109
G1 X137.853 Y101.991 E1.73341
G1 X138.15 Y102.615 E1.75639
G1 X138.333 Y103.03 E1.77148
G1 X138.56 Y103.591 E1.79161
G1 X138.816 Y104.309 E1.81696
G1 X138.976 Y104.81 E1.83445
G1 X139.19 Y105.571 E1.86074
G1 X139.352 Y106.272 E1.88467
G1 X139.439 Y106.704 E1.89933
G1 X139.561 Y107.427 E1.92372
G1 X139.649 Y108.152 E1.94801
G1 X139.693 Y108.635 E1.96414
G1 X139.735 Y109.351 E1.988
G1 X139.744 Y110.065 E2.01174
G1 X139.737 Y110.547 E2.02778
G1 X139.705 Y111.208 E2.04979
G1 X139.633 Y111.976 E2.07544
G1 X139.574 Y112.449 E2.0913
G1 X139.464 Y113.158 E2.11516
G1 X139.302 Y113.943 E2.14182
G1 X139.183 Y114.437 E2.15872
G1 X138.908 Y115.384 E2.19152
G1 X138.658 Y116.114 E2.21718
G1 X138.395 Y116.804 E2.24174
G1 X138.097 Y117.478 E2.26626
G1 X137.882 Y117.924 E2.28272
G1 X137.425 Y118.771 E2.31473
G1 X136.698 Y119.846 E2.3579
G1 X135.345 Y121.608 E2.43179
G1 X133.773 Y123.765 E2.52056
G1 X133.06 Y124.776 E2.56171
G1 X132.232 Y125.806 E2.60566
G1 X131.902 Y126.168 E2.62195
G1 X131.214 Y126.857 E2.65434
G1 X130.465 Y127.485 E2.68685
G1 X129.515 Y128.144 E2.7253
G1 X128.47 Y128.728 E2.76512
G1 X127.345 Y129.211 E2.80584
G1 X126.905 Y129.369 E2.82139
G1 X125.974 Y129.655 E2.85378
G1 X125.019 Y129.858 E2.88625
G1 X124.03 Y129.977 E2.91939
G1 X123.069 Y130.045 E2.95143
G1 X122.358 Y130.074 E2.9751
G1 X121.441 Y130.073 E3.0056
G1 X120.33 Y130.019 E3.04259
G1 X118.553 Y129.884 E3.10187
G1 X115.94 Y129.723 E3.18894
G1 X113.453 Y129.641 E3.2717
G1 X110.923 Y129.629 E3.35585
G1 X108.387 Y129.689 E3.44022
G1 X105.937 Y129.815 E3.52182
G1 X103.928 Y129.982 E3.58887
G1 X102.04 Y130.108 E3.6518
G1 X101.062 Y130.128 E3.68434
G1 X99.883 Y130.079 E3.72359
G1 X99.041 Y130.006 E3.7517
G1 X98.033 Y129.859 E3.78558
G1 X97.1 Y129.638 E3.81747
G1 X96.556 Y129.469 E3.83641
G1 X96.041 Y129.293 E3.85451
G1 X95.167 Y128.949 E3.88575
G1 X94.29 Y128.511 E3.91836
G1 X93.133 Y127.773 E3.964
G1 X92.856 Y127.57 E3.97543
G1 X92.121 Y126.979 E4.00679
G1 X91.266 Y126.142 E4.04659
G1 X91.012 Y125.864 E4.05911
G1 X90.39 Y125.116 E4.09147
G1 X89.835 Y124.316 E4.12385
G1 X89.36 Y123.484 E4.15572
G1 X89.143 Y123.035 E4.17231
G1 X88.789 Y122.243 E4.20116
G1 X88.349 Y121.17 E4.23973
G1 X87.292 Y118.699 E4.32912
G1 X86.435 Y116.795 E4.39857
G1 X86.012 Y115.69 E4.43792
G1 X85.845 Y115.161 E4.45637
G1 X85.603 Y114.259 E4.48743
G1 X85.472 Y113.671 E4.50747
G1 X85.286 Y112.543 E4.54549
G1 X85.228 Y112.022 E4.56293
G1 X85.161 Y110.825 E4.6028
G1 X85.16 Y110.258 E4.62166
G1 X85.224 Y109.045 E4.66206
G1 X85.291 Y108.443 E4.68221
G1 X85.481 Y107.298 E4.72081
G1 X85.602 Y106.752 E4.73941
G1 X85.917 Y105.624 E4.77837
G1 X86.104 Y105.071 E4.79778
G1 X86.424 Y104.238 E4.82746
G1 X87.77 Y101.131 E4.94008
G1 X88.807 Y98.541 E5.03287
G1 X89.206 Y97.651 E5.06531
G1 X89.666 Y96.83 E5.09661
G1 X90.313 Y95.892 E5.13451
G1 X90.544 Y95.594 E5.14705
G1 X91.174 Y94.851 E5.17945
G1 X91.848 Y94.186 E5.21095
G0 F6000 X92.129 Y94.471
G1 F1200 X93.2 Y93.62 E5.25644
G1 X93.589 Y93.351 E5.27217
G1 X94.353 Y92.871 E5.30218
G1 X95.22 Y92.427 E5.33458
G1 X96.087 Y92.078 E5.36567
G1 X96.351 Y91.985 E5.37498
G1 X97.258 Y91.713 E5.40647
G1 X98.563 Y91.468 E5.45063
G1 X99.408 Y91.374 E5.47891
G1 X100.101 Y91.32 E5.50203
G1 X100.644 Y91.291 E5.52012
G1 X101.358 Y91.283 E5.54387
G1 X102.115 Y91.299 E5.56905
G1 X104.572 Y91.383 E5.65082
G1 X107.117 Y91.396 E5.73547
G1 X109.607 Y91.34 E5.81831
G1 X112.162 Y91.209 E5.9034
G1 X114.667 Y91.01 E5.98698
G1 X117.21 Y90.736 E6.07205
G1 X119.308 Y90.456 E6.14244
G1 X120.056 Y90.385 E6.16743
G1 X120.919 Y90.336 E6.19618
G1 X121.682 Y90.311 E6.22158
G1 X122.45 Y90.313 E6.24712
G1 X122.93 Y90.333 E6.2631
G1 X123.923 Y90.401 E6.2962
G1 X124.82 Y90.506 E6.32624
G1 X126.051 Y90.778 E6.36817
G1 X126.464 Y90.896 E6.38246
G1 X127.371 Y91.201 E6.41428
G1 X128.233 Y91.579 E6.44559
G1 X129.146 Y92.085 E6.48031
G1 X129.396 Y92.241 E6.49011
G1 X130.169 Y92.772 E6.5213
G1 X130.893 Y93.37 E6.55253
G1 X131.57 Y94.038 E6.58417
G1 X131.828 Y94.317 E6.59681
G1 X132.44 Y95.042 E6.62836
G1 X132.744 Y95.457 E6.64547
G1 X133.113 Y95.987 E6.66695
G1 X134.64 Y98.104 E6.75377
G1 X135.91 Y99.774 E6.82355
G1 X136.354 Y100.344 E6.84758
G1 X136.899 Y101.115 E6.87898
G1 X137.492 Y102.163 E6.91903
G1 X137.784 Y102.777 E6.94165
G1 X137.962 Y103.18 E6.9563
G1 X138.183 Y103.725 E6.97586
G1 X138.435 Y104.431 E7.00079
G1 X138.591 Y104.918 E7.0178
G1 X138.8 Y105.661 E7.04347
G1 X138.96 Y106.352 E7.06706
G1 X139.045 Y106.771 E7.08128
G1 X139.164 Y107.475 E7.10503
G1 X139.251 Y108.189 E7.12896
G1 X139.294 Y108.658 E7.14462
G1 X139.335 Y109.356 E7.16788
G1 X139.344 Y110.059 E7.19126
G1 X139.337 Y110.528 E7.20686
G1 X139.305 Y111.189 E7.22887
G1 X139.236 Y111.927 E7.25352
G1 X139.179 Y112.388 E7.26897
G1 X139.072 Y113.077 E7.29216
G1 X138.913 Y113.85 E7.31841
G1 X138.799 Y114.325 E7.33466
G1 X138.529 Y115.255 E7.36687
G1 X138.284 Y115.972 E7.39207
G1 X138.029 Y116.642 E7.41591
G1 X137.736 Y117.305 E7.44002
G1 X137.53 Y117.734 E7.45585
G1 X137.073 Y118.581 E7.48786
G1 X136.381 Y119.602 E7.52888
G1 X135.028 Y121.364 E7.60277
G1 X133.45 Y123.529 E7.69188
G1 X132.748 Y124.526 E7.73243
G1 X131.936 Y125.537 E7.77556
G1 X131.619 Y125.886 E7.79125
G1 X130.957 Y126.551 E7.82245
G1 X130.237 Y127.156 E7.85373
G1 X129.287 Y127.815 E7.89219
G1 X128.312 Y128.36 E7.92934
G1 X127.187 Y128.843 E7.97006
G1 X126.787 Y128.987 E7.9842
G1 X125.89 Y129.264 E8.01542
G1 X124.971 Y129.461 E8.04668
G1 X124.002 Y129.578 E8.07915
G1 X123.052 Y129.645 E8.11082
G1 X122.358 Y129.674 E8.13393
G1 X121.46 Y129.673 E8.16379
G1 X120.36 Y129.62 E8.20042
G1 X118.583 Y129.485 E8.2597
G1 X115.953 Y129.323 E8.34734
G1 X113.466 Y129.241 E8.4301
G1 X110.916 Y129.229 E8.51491
G1 X108.378 Y129.289 E8.59935
G1 X105.904 Y129.417 E8.68175
G1 X103.901 Y129.583 E8.74859
G1 X102.032 Y129.708 E8.8109
G1 X101.079 Y129.728 E8.8426
G1 X99.918 Y129.68 E8.88125
G1 X99.076 Y129.607 E8.90936
G1 X98.125 Y129.47 E8.94132
G1 X97.219 Y129.256 E8.97228
G1 X96.685 Y129.09 E8.99088
G1 X96.187 Y128.92 E9.00838
G1 X95.346 Y128.591 E9.03842
G1 X94.469 Y128.153 E9.07102
G1 X93.37 Y127.451 E9.11439
G1 X93.107 Y127.258 E9.12524
G1 X92.372 Y126.667 E9.15661
G1 X91.561 Y125.872 E9.19439
G1 X91.319 Y125.608 E9.2063
G1 X90.718 Y124.888 E9.23749
G1 X90.182 Y124.117 E9.26872
G1 X89.72 Y123.309 E9.29968
G1 X89.508 Y122.872 E9.31583
G1 X89.159 Y122.091 E9.34429
G1 X88.719 Y121.018 E9.38286
G1 X87.66 Y118.542 E9.47243
G1 X86.809 Y116.652 E9.54137
G1 X86.386 Y115.547 E9.58072
G1 X86.231 Y115.057 E9.59781
G1 X85.993 Y114.172 E9.62829
G1 X85.867 Y113.606 E9.64758
G1 X85.684 Y112.499 E9.6849
G1 X85.626 Y111.978 E9.70233
G1 X85.561 Y110.824 E9.74078
G1 X85.56 Y110.257 E9.75964
G1 X85.622 Y109.089 E9.79854
G1 X85.686 Y108.508 E9.81798
G1 X85.872 Y107.385 E9.85584
G1 X85.993 Y106.839 E9.87444
G1 X86.296 Y105.752 E9.91197
G1 X86.477 Y105.214 E9.93085
G1 X86.791 Y104.397 E9.95996
G1 X88.137 Y101.29 E10.07258
G1 X89.172 Y98.704 E10.16523
G1 X89.555 Y97.847 E10.19645
G1 X90.015 Y97.026 E10.22775
G1 X90.63 Y96.136 E10.26373
G1 X90.849 Y95.852 E10.27566
G1 X91.455 Y95.136 E10.30686
G1 X92.129 Y94.471 E10.33835
G0 F6000 X92.378 Y94.784
G1 F1200 X93.428 Y93.949 E10.38297
G1 X93.802 Y93.69 E10.3981
G1 X94.566 Y93.21 E10.42811
G1 X95.37 Y92.798 E10.45816
G1 X96.22 Y92.455 E10.48864
G1 X96.467 Y92.368 E10.49735
G1 X97.332 Y92.106 E10.52741
G1 X98.607 Y91.866 E10.57057
G1 X99.44 Y91.773 E10.59844
G1 X100.122 Y91.719 E10.6212
G1 X100.649 Y91.691 E10.63875
G1 X101.349 Y91.683 E10.66203
G1 X102.101 Y91.699 E10.68705
G1 X104.558 Y91.783 E10.76882
G1 X107.124 Y91.796 E10.85417
G1 X109.616 Y91.74 E10.93707
G1 X112.194 Y91.608 E11.02293
G1 X114.706 Y91.408 E11.10674
G1 X117.253 Y91.133 E11.19195
G1 X119.346 Y90.854 E11.26218
G1 X120.078 Y90.784 E11.28663
G1 X120.932 Y90.736 E11.31508
G1 X121.681 Y90.711 E11.34001
G1 X122.434 Y90.713 E11.36505
G1 X122.903 Y90.732 E11.38067
G1 X123.876 Y90.798 E11.4131
G1 X124.773 Y90.903 E11.44314
G1 X125.941 Y91.163 E11.48294
G1 X126.354 Y91.281 E11.49722
G1 X127.211 Y91.568 E11.52728
G1 X128.039 Y91.929 E11.55733
G1 X128.935 Y92.425 E11.59139
G1 X129.17 Y92.571 E11.60059
G1 X129.915 Y93.081 E11.63062
G1 X130.612 Y93.655 E11.66065
G1 X131.276 Y94.31 E11.69167
G1 X131.534 Y94.589 E11.70431
G1 X132.117 Y95.278 E11.73433
G1 X132.416 Y95.686 E11.75116
G1 X132.785 Y96.216 E11.77264
G1 X134.322 Y98.346 E11.86
G1 X135.595 Y100.02 E11.92995
G1 X136.028 Y100.575 E11.95336
G1 X136.551 Y101.312 E11.98342
G1 X137.131 Y102.335 E12.02253
G1 X137.418 Y102.938 E12.04474
G1 X137.591 Y103.331 E12.05902
G1 X137.806 Y103.86 E12.07802
G1 X138.054 Y104.554 E12.10253
G1 X138.206 Y105.026 E12.11902
G1 X138.41 Y105.752 E12.1441
G1 X138.568 Y106.432 E12.16732
G1 X138.651 Y106.838 E12.1811
G1 X138.767 Y107.524 E12.20424
G1 X138.853 Y108.226 E12.22777
G1 X138.895 Y108.681 E12.24297
G1 X138.935 Y109.361 E12.26562
G1 X138.944 Y110.053 E12.28864
G1 X138.937 Y110.509 E12.30381
G1 X138.905 Y111.17 E12.32582
G1 X138.839 Y111.878 E12.34947
G1 X138.784 Y112.327 E12.36451
G1 X138.68 Y112.997 E12.38707
G1 X138.524 Y113.757 E12.41287
G1 X138.415 Y114.213 E12.42846
G1 X138.145 Y115.143 E12.46067
G1 X137.91 Y115.83 E12.48482
G1 X137.663 Y116.48 E12.50795
G1 X137.375 Y117.132 E12.53166
G1 X137.169 Y117.561 E12.54749
G1 X136.742 Y118.357 E12.57753
G1 X136.064 Y119.358 E12.61774
G1 X134.711 Y121.12 E12.69163
G1 X133.124 Y123.299 E12.78129
G1 X132.421 Y124.295 E12.82184
G1 X131.64 Y125.268 E12.86333
G1 X131.335 Y125.604 E12.87843
G1 X130.699 Y126.245 E12.90846
G1 X130.009 Y126.827 E12.93848
G1 X129.059 Y127.486 E12.97694
G1 X128.154 Y127.992 E13.01142
G1 X127.029 Y128.475 E13.05214
G1 X126.668 Y128.605 E13.06491
G1 X125.805 Y128.873 E13.09496
G1 X124.923 Y129.064 E13.12498
G1 X123.974 Y129.179 E13.15677
G1 X123.035 Y129.245 E13.18808
G1 X122.358 Y129.274 E13.21062
G1 X121.479 Y129.273 E13.23985
G1 X120.39 Y129.221 E13.27611
G1 X118.613 Y129.086 E13.33539
G1 X115.966 Y128.923 E13.42359
G1 X113.479 Y128.841 E13.50636
G1 X110.909 Y128.829 E13.59184
G1 X108.369 Y128.889 E13.67634
G1 X105.871 Y129.018 E13.75954
G1 X103.874 Y129.184 E13.82619
G1 X102.023 Y129.308 E13.88789
G1 X101.092 Y129.328 E13.91886
G1 X100.434 Y129.307 E13.94076
G1 X99.953 Y129.281 E13.95678
G1 X99.111 Y129.208 E13.98489
G1 X98.217 Y129.081 E14.01492
G1 X97.338 Y128.874 E14.04496
G1 X96.814 Y128.711 E14.06321
G1 X96.333 Y128.547 E14.08011
G1 X95.492 Y128.218 E14.11015
G1 X94.684 Y127.816 E14.14016
G1 X93.606 Y127.128 E14.1827
G1 X93.357 Y126.946 E14.19296
G1 X92.652 Y126.381 E14.22301
G1 X91.856 Y125.602 E14.26005
G1 X91.626 Y125.351 E14.27137
G1 X91.046 Y124.659 E14.3014
G1 X90.529 Y123.918 E14.33146
G1 X90.08 Y123.134 E14.36151
G1 X89.873 Y122.709 E14.37723
G1 X89.529 Y121.939 E14.40528
G1 X89.089 Y120.866 E14.44385
G1 X88.028 Y118.385 E14.5336
G1 X87.183 Y116.509 E14.60203
G1 X86.76 Y115.404 E14.64138
G1 X86.617 Y114.953 E14.65712
G1 X86.383 Y114.085 E14.68702
G1 X86.262 Y113.541 E14.70556
G1 X86.082 Y112.455 E14.74217
G1 X86.024 Y111.934 E14.75961
G1 X85.961 Y110.823 E14.79662
G1 X85.96 Y110.256 E14.81548
G1 X86.02 Y109.132 E14.85291
G1 X86.081 Y108.573 E14.87162
G1 X86.263 Y107.472 E14.90873
G1 X86.384 Y106.926 E14.92733
G1 X86.675 Y105.88 E14.96344
G1 X86.851 Y105.357 E14.9818
G1 X87.158 Y104.556 E15.01033
G1 X88.504 Y101.449 E15.12295
G1 X89.537 Y98.867 E15.21544
G1 X89.904 Y98.042 E15.24548
G1 X90.344 Y97.253 E15.27552
G1 X90.947 Y96.38 E15.31081
G1 X91.155 Y96.11 E15.32215
G1 X91.737 Y95.42 E15.35217
G1 X92.378 Y94.784 E15.3822
G1 F2700 E10.3822
G0 F6000 X99.365 Y102.477
G1 F2700 E15.3822
G1 F1200 X99.694 Y102.248 E15.39554
G1 X99.936 Y102.162 E15.40408
G1 X100.376 Y102.117 E15.41879
G1 X100.942 Y102.077 E15.43766
G1 X101.626 Y102.081 E15.46041
G1 X102.472 Y102.134 E15.48861
G1 X102.872 Y102.25 E15.50246
G1 X103.025 Y102.349 E15.50852
G1 X103.25 Y102.596 E15.51963
G1 X103.381 Y102.865 E15.52958
G1 X103.425 Y103.131 E15.53855
G1 X103.423 Y103.543 E15.55225
G1 X103.425 Y103.572 E15.55322
G1 X103.477 Y103.946 E15.56578
G1 X103.483 Y103.975 E15.56677
G1 X103.594 Y104.351 E15.5798
G1 X103.609 Y104.387 E15.5811
G1 X103.825 Y104.797 E15.59652
G1 X103.819 Y104.813 E15.59708
G1 X103.852 Y104.934 E15.60125
G1 X103.95 Y105.012 E15.60542
G1 X104.016 Y105.012 E15.60762
G1 X104.11 Y105.121 E15.6124
G1 X104.132 Y105.143 E15.61344
G1 X104.512 Y105.469 E15.63009
G1 X104.548 Y105.494 E15.63155
G1 X104.75 Y105.602 E15.63917
G1 X104.75 Y105.634 E15.64023
G1 X104.771 Y105.724 E15.6433
G1 X104.887 Y105.955 E15.6519
G1 X104.897 Y105.972 E15.65256
G1 X105.11 Y106.31 E15.66585
G1 X105.134 Y106.341 E15.66715
G1 X105.411 Y106.631 E15.68049
G1 X105.442 Y106.657 E15.68183
G1 X105.767 Y106.883 E15.695
G1 X105.802 Y106.903 E15.69634
G1 X106.175 Y107.063 E15.70984
G1 X106.213 Y107.075 E15.71117
G1 X106.598 Y107.156 E15.72425
G1 X106.638 Y107.16 E15.72559
G1 X107.049 Y107.162 E15.73926
G1 X107.085 Y107.159 E15.74046
G1 X107.424 Y107.098 E15.75192
G1 X107.453 Y107.09 E15.75292
G1 X107.733 Y106.995 E15.76275
G1 X107.845 Y106.901 E15.76761
G1 X107.916 Y106.77 E15.77257
G1 X108.082 Y107.04 E15.78311
G1 X108.368 Y107.675 E15.80628
G1 X108.629 Y108.462 E15.83385
G1 X108.808 Y109.271 E15.86141
G1 X108.896 Y110.091 E15.88884
G1 X108.896 Y110.921 E15.91645
G1 X108.808 Y111.741 E15.94388
G1 X108.629 Y112.55 E15.97144
G1 X108.368 Y113.335 E15.99895
G1 X108.092 Y113.949 E16.02134
G1 X108.011 Y114.096 E16.02692
G1 X107.808 Y114.096 E16.03367
G1 X107.723 Y114.032 E16.03721
G1 X107.406 Y113.958 E16.04804
G1 X107.376 Y113.954 E16.04905
G1 X107.002 Y113.925 E16.06152
G1 X106.967 Y113.925 E16.06269
G1 X106.571 Y113.965 E16.07593
G1 X106.532 Y113.973 E16.07725
G1 X106.152 Y114.09 E16.09047
G1 X106.115 Y114.106 E16.09181
G1 X105.764 Y114.298 E16.10512
G1 X105.733 Y114.319 E16.10637
G1 X105.451 Y114.552 E16.11853
G1 X105.427 Y114.575 E16.11964
